Pods/ProtonCore-UIFoundations/libraries/UIFoundations/Sources/Assets.xcassets/Images/IconSet/ic-bug.imageset/ic-bug.svg

<svg width="24" height="24" viewBox="0 0 24 24" fill="none" xmlns="http://www.w3.org/2000/svg">
<path fill-rule="evenodd" clip-rule="evenodd" d="M15.664 4.78462C15.905 5.12432 16.1006 5.49852 16.2418 5.89794H17.25H18.75V7.39794V8.92111C19.9883 8.92111 21 7.90981 21 6.65258C21 6.23836 21.3358 5.90258 21.75 5.90258C22.1642 5.90258 22.5 6.23836 22.5 6.65258C22.5 8.72952 20.8254 10.4211 18.75 10.4211V12.6943H21.75C22.1642 12.6943 22.5 13.0301 22.5 13.4443C22.5 13.8585 22.1642 14.1943 21.75 14.1943H18.75V15.7499C18.75 16.2555 18.6944 16.7482 18.589 17.2221H18.75C20.8254 17.2221 22.5 18.9136 22.5 20.9906C22.5 21.4048 22.1642 21.7406 21.75 21.7406C21.3358 21.7406 21 21.4048 21 20.9906C21 19.7334 19.9883 18.7221 18.75 18.7221H18.0621C16.9629 20.9597 14.6613 22.4999 12 22.4999C9.33868 22.4999 7.03708 20.9597 5.93791 18.7221H5.25C4.01171 18.7221 3 19.7334 3 20.9906C3 21.4048 2.66421 21.7406 2.25 21.7406C1.83579 21.7406 1.5 21.4048 1.5 20.9906C1.5 18.9136 3.17458 17.2221 5.25 17.2221H5.41102C5.3056 16.7482 5.25 16.2555 5.25 15.7499V14.1943H2.25C1.83579 14.1943 1.5 13.8585 1.5 13.4443C1.5 13.0301 1.83579 12.6943 2.25 12.6943H5.25V10.4211C3.17458 10.4211 1.5 8.72952 1.5 6.65258C1.5 6.23836 1.83579 5.90258 2.25 5.90258C2.66421 5.90258 3 6.23836 3 6.65258C3 7.90981 4.01171 8.92111 5.25 8.92111V7.39794V5.89794H6.75H7.75819C7.89943 5.4985 8.09503 5.12428 8.33606 4.78456L6.35021 2.78645C6.05822 2.49265 6.05822 2.01632 6.35021 1.72253C6.6422 1.42873 7.11561 1.42873 7.4076 1.72253L9.39318 3.72037C10.1287 3.1916 11.0284 2.87942 12 2.87942C12.9716 2.87942 13.8714 3.19161 14.6069 3.7204L16.5927 1.7223C16.8847 1.4285 17.3581 1.4285 17.6501 1.7223C17.9421 2.01609 17.9421 2.49243 17.6501 2.78622L15.664 4.78462ZM9 7.40721H7.5L7.50001 7.39794H6.75V15.7499C6.75 18.6493 9.1005 20.9999 12 20.9999C14.8995 20.9999 17.25 18.6493 17.25 15.7499V7.39794H16.5L16.5 7.40721H15L9 7.40721ZM14.5979 5.89794C14.0769 4.99121 13.1037 4.37942 12 4.37942C10.8963 4.37942 9.9231 4.99121 9.40215 5.89794H14.5979Z" fill="#0C0C14"/>
</svg>

<svg xmlns="http://www.w3.org/2000/svg" width="24" height="24" viewBox="0 0 24 24">
  <g class="ic-bug">
    <path fill-rule="evenodd" d="M15.664 4.785c.241.34.437.714.578 1.113h2.508V8.92A2.26 2.26 0 0 0 21 6.653a.75.75 0 0 1 1.5 0c0 2.077-1.675 3.768-3.75 3.768v2.273h3a.75.75 0 0 1 0 1.5h-3v1.556c0 .506-.056.998-.161 1.472h.161c2.075 0 3.75 1.692 3.75 3.769a.75.75 0 0 1-1.5 0 2.26 2.26 0 0 0-2.25-2.269h-.688A6.75 6.75 0 0 1 12 22.5a6.75 6.75 0 0 1-6.062-3.778H5.25A2.26 2.26 0 0 0 3 20.991a.75.75 0 0 1-1.5 0c0-2.077 1.675-3.769 3.75-3.769h.161a6.774 6.774 0 0 1-.161-1.472v-1.556h-3a.75.75 0 0 1 0-1.5h3v-2.273c-2.075 0-3.75-1.691-3.75-3.768a.75.75 0 1 1 1.5 0A2.26 2.26 0 0 0 5.25 8.92V5.898h2.508c.141-.4.337-.774.578-1.113L6.35 2.786a.756.756 0 0 1 0-1.063.744.744 0 0 1 1.058 0L9.393 3.72A4.45 4.45 0 0 1 12 2.88a4.45 4.45 0 0 1 2.607.84l1.986-1.998a.744.744 0 0 1 1.057 0 .756.756 0 0 1 0 1.064l-1.986 1.999ZM9 7.407H7.5v-.01h-.75v8.353a5.25 5.25 0 0 0 10.5 0V7.398h-.75v.01H9Zm5.598-1.51A3.004 3.004 0 0 0 12 4.38a3.004 3.004 0 0 0-2.598 1.519h5.196Z" class="Icon"/>
  </g>
</svg>
